X: 17461
T: Highlandman, The
R: strathspey
M: 4/4
K: Amixolydian
"A"A2 A/A/A "A"B/c/d ec|"F#m"AB ce "G"dB [GB]B|"A"A2 A2 "A"B/c/d eg|"F#m"af ge "Em"dB [GB]B|
"A"A2 A/A/A "A"B/c/d ec|"F#m"AB ce "G"dB [GB]B|"A"A2 A2 "A"B/c/d eg|"A"af ge "G"dB [GB]B|
"C"=cg ~g2 af ge|"F"=ce ge "G"dB GB|"C"=cg ~g2 a/g/f gb|"F"af ge "G" dB [GB]G|
"C"=cg ~g2 af ge|=ce ge "G"dB GB|"C"=cg ~g2 a/g/f gb|"D"af "E"ge dB "A"[GB][B^G]|

